X:16
T:See, Amid The Winter's Snow
R:March
C:John Goss, 1871
O:England
Z:Paul Hardy's Xmas Tunebook 2019 (see www.paulhardy.net). Creative Commons cc by-nc-sa licenced.
M:2/2
L:1/8
Q:1/2=75
K:G
"G"G3 A "Em"G2 F2|"C"E3 D "D"D4|"G"G2 A2 "C"c2 B2|"G"B3 A "D"A4|"G"G3 A "Em"G2 F2|"C"E3 D "D"D4|"G"G2 A2 B2 "C"c2|"D"A3 G "G"G4||
"G"d3 d "C"c2 B2|"Am"A2 G2 "D"F4|"G"d3 d "C"c2 B2|"Am"A2 G2 "D"F4|"G"G3 A "Em"G2 F2|"C"E3 D "D"D4|"G"d3 B "C"G2 c2|"D7"B2 A2 "G"G4|]
W:See amid the winter snow,
W:Born for us on earth below;
W:See the tender lamb appears,
W:Promis'd from eternal years.
W:
W:Hail, thou ever blessed morn;
W:Hail, redemption's happy dawn;
W:Sing through all Jerusalem,
W:Christ is born in Bethlehem.
W:
W:(Edward Caswall, 1871)
%%newpage

